X:108
T:God Speed the Plough* (reel) 
B:CRE2.160 (BÃÂÃÂÃÂÃÂ­ ag Treabhadh Leat)
F:file ID: cre.2/108god_sp
N:"God" added by me to distinguish this "Speed the Plough"
from other tunes of the same name.
Q:180
L:1/8
M:4/4
R:reel
K:G
D|GGGB dedB|degd egdB|cecA (3Bcd BG|FAAF GFEF|
GGGB dedB|degd egdB|cecA (3Bcd BG|1 FAAF G3:|2 FAAF G2||
|:d|gggf gdBd|ggbg egdB|c3A B2 BG|FAAF GFEF|
g2 gf gdBd|(3gfg bg egdB|cecA (3Bcd BG|FAAF G2:|

%%%

